X:15
T:February reel #2
C: Dale Russ
M:C|
L:1/8
C:
R:reel
K:A
c2AF cFAF|cdBd cBAc|B2GE BEGE|B2dB cBAB|
c2AF cFAF|cdBd cBAc|BEGB dcBA |BAGF EFGB:|
cffe ~f3g|abga fecB|cf (3fff ~a3f |gfef  ~f3e|
cf (3fff cfaf|f2gf fecA|GB (3BBB GBdB|cBAG FGAB|
cffe ~f3g|abga fecB|cf (3fff ~a3f |gfef  ~f3g|
a2 (3fga gfef|f2cf ecBA|GB (3BBB GBdB|cBAG F4||
